img/trashbin.svg

<?xml version="1.0" encoding="UTF-8" standalone="no"?>
<!-- Created with Inkscape (http://www.inkscape.org/) -->

<svg
   xmlns:dc="http://purl.org/dc/elements/1.1/"
   xmlns:cc="http://creativecommons.org/ns#"
   xmlns:rdf="http://www.w3.org/1999/02/22-rdf-syntax-ns#"
   xmlns:svg="http://www.w3.org/2000/svg"
   xmlns="http://www.w3.org/2000/svg"
   xmlns:sodipodi="http://sodipodi.sourceforge.net/DTD/sodipodi-0.dtd"
   xmlns:inkscape="http://www.inkscape.org/namespaces/inkscape"
   width="210mm"
   height="297mm"
   viewBox="0 0 744.09448819 1052.3622047"
   id="svg2"
   version="1.1"
   inkscape:version="0.92.4 (unknown)"
   sodipodi:docname="trashbin.svg">
  <defs
     id="defs4">
    <inkscape:path-effect
       effect="spiro"
       id="path-effect5143"
       is_visible="true" />
  </defs>
  <sodipodi:namedview
     id="base"
     pagecolor="#ffffff"
     bordercolor="#666666"
     borderopacity="1.0"
     inkscape:pageopacity="0.0"
     inkscape:pageshadow="2"
     inkscape:zoom="3.959798"
     inkscape:cx="399.42062"
     inkscape:cy="811.27154"
     inkscape:document-units="px"
     inkscape:current-layer="layer1"
     showgrid="false"
     inkscape:window-width="2493"
     inkscape:window-height="1385"
     inkscape:window-x="2627"
     inkscape:window-y="27"
     inkscape:window-maximized="1" />
  <metadata
     id="metadata7">
    <rdf:RDF>
      <cc:Work
         rdf:about="">
        <dc:format>image/svg+xml</dc:format>
        <dc:type
           rdf:resource="http://purl.org/dc/dcmitype/StillImage" />
        <dc:title />
      </cc:Work>
    </rdf:RDF>
  </metadata>
  <g
     inkscape:label="Layer 1"
     inkscape:groupmode="layer"
     id="layer1">
    <path
       style="color:#000000;font-style:normal;font-variant:normal;font-weight:normal;font-stretch:normal;font-size:medium;line-height:normal;font-family:sans-serif;font-variant-ligatures:normal;font-variant-position:normal;font-variant-caps:normal;font-variant-numeric:normal;font-variant-alternates:normal;font-feature-settings:normal;text-indent:0;text-align:start;text-decoration:none;text-decoration-line:none;text-decoration-style:solid;text-decoration-color:#000000;letter-spacing:normal;word-spacing:normal;text-transform:none;writing-mode:lr-tb;direction:ltr;text-orientation:mixed;dominant-baseline:auto;baseline-shift:baseline;text-anchor:start;white-space:normal;shape-padding:0;clip-rule:nonzero;display:inline;overflow:visible;visibility:visible;opacity:1;isolation:auto;mix-blend-mode:normal;color-interpolation:sRGB;color-interpolation-filters:linearRGB;solid-color:#000000;solid-opacity:1;vector-effect:none;fill:#005844;fill-opacity:1;fill-rule:evenodd;stroke:none;stroke-width:4.28700018;stroke-linecap:butt;stroke-linejoin:miter;stroke-miterlimit:4;stroke-dasharray:none;stroke-dashoffset:0;stroke-opacity:1;color-rendering:auto;image-rendering:auto;shape-rendering:auto;text-rendering:auto;enable-background:accumulate"
       d="m 272.99414,271.9707 c -1.53896,0 -2.85219,1.24206 -2.7793,2.7793 l 0.043,0.88672 c -3.56118,0.89337 -6.22656,4.12531 -6.22656,7.95117 v 54.80078 h 4.28711 v -54.80078 c 0,-1.56319 0.86607,-2.86265 2.15039,-3.49609 l 1.74609,36.83203 c 0.0729,1.53724 1.24034,2.77734 2.7793,2.77734 h 21.75781 c 1.53898,0 2.7064,-1.2401 2.7793,-2.77734 l 1.74609,-36.83008 c 1.283,0.6339 2.15039,1.93191 2.15039,3.49414 v 54.80078 h 4.28711 v -54.80078 c 0,-3.82586 -2.66538,-7.0578 -6.22656,-7.95117 l 0.043,-0.88672 c 0.0729,-1.53724 -1.24032,-2.7793 -2.7793,-2.7793 z"
       transform="scale(0.9375)"
       id="path13" />
    <path
       style="color:#000000;font-style:normal;font-variant:normal;font-weight:normal;font-stretch:normal;font-size:medium;line-height:normal;font-family:sans-serif;font-variant-ligatures:normal;font-variant-position:normal;font-variant-caps:normal;font-variant-numeric:normal;font-variant-alternates:normal;font-feature-settings:normal;text-indent:0;text-align:start;text-decoration:none;text-decoration-line:none;text-decoration-style:solid;text-decoration-color:#000000;letter-spacing:normal;word-spacing:normal;text-transform:none;writing-mode:lr-tb;direction:ltr;text-orientation:mixed;dominant-baseline:auto;baseline-shift:baseline;text-anchor:start;white-space:normal;shape-padding:0;clip-rule:nonzero;display:inline;overflow:visible;visibility:visible;opacity:1;isolation:auto;mix-blend-mode:normal;color-interpolation:sRGB;color-interpolation-filters:linearRGB;solid-color:#000000;solid-opacity:1;vector-effect:none;fill:#ffffff;fill-opacity:1;fill-rule:evenodd;stroke:none;stroke-width:4.28700018;stroke-linecap:butt;stroke-linejoin:miter;stroke-miterlimit:4;stroke-dasharray:none;stroke-dashoffset:0;stroke-opacity:1;color-rendering:auto;image-rendering:auto;shape-rendering:auto;text-rendering:auto;enable-background:accumulate"
       d="m 276.58594,275.25391 h 4.72656 c 1.41904,0 2.56055,1.14346 2.56055,2.5625 v 3.21093 c 0,1.41904 -1.14151,2.56055 -2.56055,2.56055 h -4.72656 c -1.41904,0 -2.5625,-1.14151 -2.5625,-2.56055 v -3.21093 c 0,-1.41904 1.14346,-2.5625 2.5625,-2.5625 z"
       transform="scale(0.9375)"
       id="path11" />
    <path
       style="color:#000000;font-style:normal;font-variant:normal;font-weight:normal;font-stretch:normal;font-size:medium;line-height:normal;font-family:sans-serif;font-variant-ligatures:normal;font-variant-position:normal;font-variant-caps:normal;font-variant-numeric:normal;font-variant-alternates:normal;font-feature-settings:normal;text-indent:0;text-align:start;text-decoration:none;text-decoration-line:none;text-decoration-style:solid;text-decoration-color:#000000;letter-spacing:normal;word-spacing:normal;text-transform:none;writing-mode:lr-tb;direction:ltr;text-orientation:mixed;dominant-baseline:auto;baseline-shift:baseline;text-anchor:start;white-space:normal;shape-padding:0;clip-rule:nonzero;display:inline;overflow:visible;visibility:visible;opacity:1;isolation:auto;mix-blend-mode:normal;color-interpolation:sRGB;color-interpolation-filters:linearRGB;solid-color:#000000;solid-opacity:1;vector-effect:none;fill:#ffffff;fill-opacity:1;fill-rule:evenodd;stroke:none;stroke-width:4.28700018;stroke-linecap:butt;stroke-linejoin:miter;stroke-miterlimit:4;stroke-dasharray:none;stroke-dashoffset:0;stroke-opacity:1;color-rendering:auto;image-rendering:auto;shape-rendering:auto;text-rendering:auto;enable-background:accumulate"
       d="m 290.43555,275.25391 h 4.72461 c 1.41904,0 2.5625,1.14346 2.5625,2.5625 v 3.21093 c 0,1.41904 -1.14346,2.56055 -2.5625,2.56055 h -4.72461 c -1.41904,0 -2.5625,-1.14151 -2.5625,-2.56055 v -3.21093 c 0,-1.41904 1.14346,-2.5625 2.5625,-2.5625 z"
       transform="scale(0.9375)"
       id="path5240" />
  </g>
</svg>

<?xml version="1.0" encoding="UTF-8" standalone="no"?>
<!-- Created with Inkscape (http://www.inkscape.org/) -->

<svg
   xmlns:dc="http://purl.org/dc/elements/1.1/"
   xmlns:cc="http://creativecommons.org/ns#"
   xmlns:rdf="http://www.w3.org/1999/02/22-rdf-syntax-ns#"
   xmlns:svg="http://www.w3.org/2000/svg"
   xmlns="http://www.w3.org/2000/svg"
   xmlns:sodipodi="http://sodipodi.sourceforge.net/DTD/sodipodi-0.dtd"
   xmlns:inkscape="http://www.inkscape.org/namespaces/inkscape"
   width="210mm"
   height="297mm"
   viewBox="0 0 744.09448819 1052.3622047"
   id="svg2"
   version="1.1"
   inkscape:version="0.92.4 (5da689c313, 2019-01-14)"
   sodipodi:docname="trashbin.svg">
  <defs
     id="defs4">
    <inkscape:path-effect
       effect="spiro"
       id="path-effect5143"
       is_visible="true" />
  </defs>
  <sodipodi:namedview
     id="base"
     pagecolor="#ffffff"
     bordercolor="#666666"
     borderopacity="1.0"
     inkscape:pageopacity="0.0"
     inkscape:pageshadow="2"
     inkscape:zoom="3.959798"
     inkscape:cx="399.42062"
     inkscape:cy="811.27154"
     inkscape:document-units="px"
     inkscape:current-layer="layer1"
     showgrid="false"
     inkscape:window-width="1920"
     inkscape:window-height="1057"
     inkscape:window-x="-8"
     inkscape:window-y="-8"
     inkscape:window-maximized="1" />
  <metadata
     id="metadata7">
    <rdf:RDF>
      <cc:Work
         rdf:about="">
        <dc:format>image/svg+xml</dc:format>
        <dc:type
           rdf:resource="http://purl.org/dc/dcmitype/StillImage" />
        <dc:title></dc:title>
      </cc:Work>
    </rdf:RDF>
  </metadata>
  <g
     inkscape:label="Layer 1"
     inkscape:groupmode="layer"
     id="layer1">
    <path
       style="color:#000000;font-style:normal;font-variant:normal;font-weight:normal;font-stretch:normal;font-size:medium;line-height:normal;font-family:sans-serif;font-variant-ligatures:normal;font-variant-position:normal;font-variant-caps:normal;font-variant-numeric:normal;font-variant-alternates:normal;font-feature-settings:normal;text-indent:0;text-align:start;text-decoration:none;text-decoration-line:none;text-decoration-style:solid;text-decoration-color:#000000;letter-spacing:normal;word-spacing:normal;text-transform:none;writing-mode:lr-tb;direction:ltr;text-orientation:mixed;dominant-baseline:auto;baseline-shift:baseline;text-anchor:start;white-space:normal;shape-padding:0;clip-rule:nonzero;display:inline;overflow:visible;visibility:visible;opacity:1;isolation:auto;mix-blend-mode:normal;color-interpolation:sRGB;color-interpolation-filters:linearRGB;solid-color:#000000;solid-opacity:1;vector-effect:none;fill:#005844;fill-opacity:1;fill-rule:evenodd;stroke:none;stroke-width:4.28700018;stroke-linecap:butt;stroke-linejoin:miter;stroke-miterlimit:4;stroke-dasharray:none;stroke-dashoffset:0;stroke-opacity:1;color-rendering:auto;image-rendering:auto;shape-rendering:auto;text-rendering:auto;enable-background:accumulate"
       d="M 272.99414 271.9707 C 271.45518 271.9707 270.14195 273.21276 270.21484 274.75 L 270.25781 275.63672 C 266.69663 276.53009 264.03125 279.76203 264.03125 283.58789 L 264.03125 338.38867 L 268.31836 338.38867 L 268.31836 283.58789 C 268.31836 282.0247 269.18443 280.72524 270.46875 280.0918 L 272.21484 316.92383 C 272.28774 318.46107 273.45518 319.70117 274.99414 319.70117 L 296.75195 319.70117 C 298.29093 319.70117 299.45835 318.46107 299.53125 316.92383 L 301.27734 280.09375 C 302.56034 280.72765 303.42773 282.02566 303.42773 283.58789 L 303.42773 338.38867 L 307.71484 338.38867 L 307.71484 283.58789 C 307.71484 279.76203 305.04946 276.53009 301.48828 275.63672 L 301.53125 274.75 C 301.60415 273.21276 300.29093 271.9707 298.75195 271.9707 L 272.99414 271.9707 z M 276.58594 275.25391 L 281.3125 275.25391 C 282.73154 275.25391 283.87305 276.39737 283.87305 277.81641 L 283.87305 281.02734 C 283.87305 282.44638 282.73154 283.58789 281.3125 283.58789 L 276.58594 283.58789 C 275.1669 283.58789 274.02344 282.44638 274.02344 281.02734 L 274.02344 277.81641 C 274.02344 276.39737 275.1669 275.25391 276.58594 275.25391 z M 290.43555 275.25391 L 295.16016 275.25391 C 296.5792 275.25391 297.72266 276.39737 297.72266 277.81641 L 297.72266 281.02734 C 297.72266 282.44638 296.5792 283.58789 295.16016 283.58789 L 290.43555 283.58789 C 289.01651 283.58789 287.87305 282.44638 287.87305 281.02734 L 287.87305 277.81641 C 287.87305 276.39737 289.01651 275.25391 290.43555 275.25391 z "
       transform="scale(0.9375)"
       id="path5240" />
  </g>
</svg>
